!!!id: 16xx:1242
!!!COM: Paszkiewicz, Andrzej
!!!OTL: Missa de Passione Domini – Kyrie
!!!PDT:
!!!SMS-siglum: PL-Kk
!!!SMS-shelfmark: Kk.I.11
!!!NIFC-rismID: 1001154140
!!!URL-scan: http://repozytorium.nifc.pl/skany/pl-kk-nut--i-11
!!!ONB-nifc: UWAGA: części Mszy: 1. Kyrie, 2. Sanctus. Skan 0012 (tylko org)
!!!SMS-variant:
!!!SMS-altvar:
**kern
*I"Organo
*I'Org.
*clefF4
*k[]
*M2/1
*met(c|)
*all\right
*2\right
=1-
!LO:TX:b:t=Kyrie.
1G
2.C/
4C/
=2-
!LO:TX:t=Miſsa de Paſsione D(omi)ni a 4. A.P. Pro Organo vel Viola.
2FF/
1F
2E\
=3-
4F\
4E\
4D/
4C/
4BB/
4AA/
2GG/
=4-
2.AA/
4BB/
1C
=5-
1FF
1FF
=6-
1C
2D/
2BB/
=7-
2GG/
2AA/
1.D
=8-
.
2BB/
4FF/
4GG/
4AA/
4BB/
=9-
1C
2C/
!LO:SIC:v:custos:F
2G\
!LO:LB:g=original
=10-
2F\
2FF/
1.C
=11-
.
2C/
!LO:N:vis=0
1FF;
=12-
*M2/1
*lig
*met(c|)
!LO:TX:b:t=CHriſte
1F
1G
*Xlig
=13-
*lig
1BB
1C
*Xlig
=14-
1D
1BB
=15-
1C
1FF
=16-
1GG
1C
=17-
1AA
1FF
=18-
1.C
2C/
=19-
2AA/
2FF/
0C
=20-
.
!LO:N:vis=0
1FF;
!LO:LB:g=original
=21||-
*k[b-]
*M2/1
*met(c|)
!LO:TX:b:t=Kyrie
1F
1.C
=22-
.
2D/
2E\
2C/
=23-
1F
1GG
=24-
2AA/
2FF/
1C
=25-
2FF/
1F
2F\
=26-
2C/
2E\
2D/
2F\
=27-
1C
1FF
=28-
1.BB-
2D/
=29-
1.C
2C/
=30-
2AA/
2FF/
0C
=31-
.
!LO:N:vis=0
1FF;
!LO:LB:g=original
=32||
*M2/1
*met(c|)
!LO:TX:b:t=Kyrie Vltimu(m)
4FF/
4GG/
4AA/
4BB-/
2.C/
4C/
=33-
2D/
2D/
1C
=34-
1FF
1BB-
=35-
1C
4.D/
8C/
4BB-/
4AA/
=36-
2GG/
1C
1AA/
=37-
.
1FF
2BB-/
=38-
2.C/
4C/
2C/
2GG/
=39-
4FF/
4GG/
4AA/
4FF/
2C/
2BB-/
=40-
2.C/
4C/
!LO:N:vis=0
1FF;
==
*-
!!!ENC: Kamil Watkowski
!!!END: 2021-07-10
